X:136 
T:Molly From Longford 
S:SeÃÂÃÂÃÂÃÂ¡n Reid
F:file ID: cre.4/136molly_L
B:CRE4.074 (MailÃÂÃÂÃÂÃÂ­ ÃÂÃÂÃÂÃÂ³n Longfort)
N:If D sharps are a problem, play D natural. At
playing speed nobody will notice the difference!
L:1/8
M:12/8
Q:160
R:jig
K:Am
A|G2E E^DE G2E =D3|G2E E^DE A2c B2A|
[1 "3"G2E E^DE G2E =D3|c2A B2G A2c B2:|
[2 "3a"G2E E^DE G2E =D3|c2A B2G A3 A2 ||
A|"5"Bcd e2d B2e e2d|c2A B2G A2E E^DE|
"7"Bcd e2d B2d e2d|c2A B2G A3 AGA|
"9"Bcd e2d B2d e2d|c2A B2G A2E E^DE|
"11"Bcd e2d e2^f e2d|c2A B2G A3-A3 |]

%%%

